X: 20822
T: GO GEORGE I CAN'T ENDURE YOU
O: From "No song no supper."
%R: march
B: "Edinburgh Repository of Music" v.2 p.82 #2 - p.83 #1
F: http://digital.nls.uk/special-collections-of-printed-music/pageturner.cfm?id=87776133
Z: 2015 John Chambers <jc:trillian.mit.edu>
M: 2/4
L: 1/8
K: C
(e/f/) |\
ggga | ag z(e/f/) | ggga | {b}ag zg |\
c'bc'd' | (f'e')d'c' | (ba)gf | (ed) z(e/f/) |
ggga | {b}ag z(e/f/) | ggga | {b}ag zg |\
(c'b) c'd' | (f'e').d'.c' | (e'd').c'.b | c'2 zg |
ff ({g}f/e/f/g/) | e2 zc' | ff ({g}f/e/f/g/) | c2 zg |\
ff ({g}f/e/f/g/) | e2 zg | ff (f/d/c/B/) | c2 zc' |
(e'd').c'.b | (ag).f.e | ff dd | c2 zc' |\
.e'.d'.c'.b | .a.g.f.e | .f.f .d.d | c2 z2 |]

% - - - - tune continued onto next page - - - - %

%%sep 2 1 500
%%sep 1 1 500

